X:1
T:In der Halle des Bierkönigs.
T:EDVARD GRIEG. Op. 46, N° 4.
T:In der Halle des Bierkönigs.
C:EDVARD GRIEG. Op. 46, N° 4.
%%score { ( 1 3 ) | 2 }
L:1/8
Q:1/4=120
M:4/4
K:D
V:1 bass nm="Klavier" snm="Kl."
V:3 bass 
V:2 bass 
V:1
!pp! !>!!fermata![F,F]8 |"^sempre staccato e" .B,,,.C,,.D,,.E,, !>!.F,,.D,, .F,,2 | %2
 !>!.^E,,.C,, .E,,2 !>!.=E,,.=C,, .E,,2 | .B,,,.^C,,.D,,.E,, .F,,.D,,.F,,.B,, | %4
 .A,,.F,,.D,,.F,, !>!A,,4 | .B,,.C,.D,.E, !>!.F,.D, .F,2 | !>!.^E,.C, .E,2 !>!.=E,.=C, .E,2 | %7
 .B,,.^C,.D,.E, .F,.D,.F,.B, | .A,.F,.D,.F, !>![A,,A,]4 | .F,,.^G,,.^A,,.B,, !>!.C,.A,, .C,2 | %10
 !>!.D,.^A,, .D,2 !>!.C,.A,, .C,2 | .F,,.^G,,.^A,,.B,, !>!.C,.A,, .C,2 | !>!.D,.^A,, .D,2 !>!C,4 | %13
 .F,.^G,.^A,.B, !>!.C.A, .C2 | !>!.D.^A, .D2 !>!.C.A, .C2 | .F,.^G,.^A,.B, !>!.C.A, .C2 | %16
 !>!.D.^A, .D2 !>![C,C]4 |[Q:1/4=125] .B,,,.C,,.D,,.E,, !>!.F,,.D,, .F,,2 | %18
 !>!.^E,,.C,, .E,,2 !>!.=E,,.=C,, .E,,2 | .B,,,.^C,,.D,,.E,, .F,,.D,,.F,,.B,, | %20
 .A,,.F,,.D,,.F,, !>!A,,4 | .B,,.C,.D,.E, !>!.F,.D, .F,2 | !>!.^E,.C, .E,2 !>!.=E,.=C, .E,2 | %23
 .B,,.^C,.D,.E, .F,.D,.F,.B, | .F,.D,.F,.B, !>!B,,4 |!p![Q:1/4=130] .B,.C.[F,D].E !>!.F.D .[F,F]2 | %26
 !>!.^E.C .[F,E]2 !>!.=E.=C .[F,E]2 | .B,.^C.[F,D].E .F.D.F.B | .A.F.[A,D].F !>!A4 | %29
 .B.c.d.e !>!.f.d .f2 | !>!.^e.c .e2 !>!.=e.=c .e2 | .B.c.[Fd].e .f.d.f.b | .a.f.d.f !>!a4 | %33
"^poco a poco cresc. e stretto" .F.^G.[F^A].B !>!.c.A .[Ac]2 | !>!.d.^A .d2 !>!.c.A .c2 | %35
 .F.^G.^A.B !>!.c.A .c2 | !>!.d.^A .d2 !>!c4 | .f.^g.[f^a].b !>!.c'.a .[fac']2 | %38
 !>!.d'.^a .[fad']2 !>!.c'.a .[fac']2 | .f.^g.[f^a].b !>!.c'.a .[fac']2 | %40
 !>!.d'.^a .[fad']2 !>!c'4 |!mf![Q:1/4=135] .B,.C"^e sempre cresc.".[F,D].E !>!.F.D .[F,F]2 | %42
 !>!.^E.C .[F,E]2 !>!.=E.=C .[F,E]2 | .B,.^C.[F,D].E .F.D.[B,F].B | .A.F.[A,D].F !>!A4 | %45
 .B.c.[Fd].e !>!.f.d .[Ff]2 | !>!.^e.c .[Fe]2 !>!.=e.=c .[Fe]2 |!<(! .B.^c.d.e .f.d.f.b | %48
 .f.d.f.b!<)! B4 |"^più vivo"!ff![Q:1/4=140]!8va(! !>!.b.c'.=d'.e' !>!.f'.d' .f'2 | %50
 !>!.^e'.c' .e'2 !>!.=e'.=c' .e'2 | .b.^c'.d'.e' .f'.d'.f'.b' | .a'.f'.d'.f' !>!a'4 | %53
 !>!.b.c'.=d'.e' !>!.f'.d' .f'2 | !>!.^e'.c' e'2 !>!.=e'.=c' e'2 | .b.^c'.d'.e' .f'.d'.f'.b' | %56
 .a'.f'.d'.f' !>!a'4 |"^sempre stretto al fine"[Q:1/4=145] .f'.^g'.^a'.b' !>!.c''a' !>!.c''2 | %58
 !>!.[d'f'd'']^a' !>!.[d'f'd'']2 !>!.[c'f'c''].a' !>!.[c'f'c'']2 | %59
 .f'.[f'^g'].[f'^a'].[f'b'] !>!.[c'f'c''].[c'f'a'] !>!.[c'f'c'']2 | %60
 !>!.[d'f'd''].[d'f'^a'] !>!.[d'f'd'']2 !>![c'f'c'']4 | .f'.g'.^a'.b' !>!.c''.a' !>!c''2 | %62
 !>!.[^d'f'^d''].^a' !>!.[d'f'd'']2 .[c'f'c''].a' !>!.[c'f'c'']2 | %63
 f'.[f'^g'].[f'^a'].[f'b'] !>!.[c'f'c''][c'f'a'] !>!.[c'f'c'']2 | %64
 !>!.[^d'f'^d''].[d'f'^a'] !>!.[d'f'd'']2 !>![c'f'c'']4 |[Q:1/4=150] .b.c'.=d'.e' !>!.f'.d' .f'2 | %66
 !>!.^e'.c' e'2 !>!.=e'.=c' .e'2 | .b.^c'.d'.e' .f'.d'.f'.b' | .a'.f'.d'.f' !>!a'4 | %69
 .b.[bc'].[bd'].[be'] !>!.[bf'].[bd'] .[bd'f']2 | %70
 !>!.[b^e'].[bc'] .[bc'e']2 !>!.[b=e'].[b=c'] .[bc'e']2 | %71
 .b.[b^c'].[bd'].[be'] .[bf'].[bd'].[bf'].[bb'] | .[bf'].[bd'].[bf'].[bb'] !>!b4 | %73
[Q:1/4=155] z2{^g'a'^a'} .[d'b']2 z4 | z2{^g'a'^a'} .[d'b']2 z4 | .b.c'.d'.e' .f'.d'.f'.b' | %76
 .^a'.f'.a'.c'' !>!b'4 | z2{^g'a'^a'} .[d'b']2 z4 | z2{^g'a'^a'} .[d'b']2 z4 | %79
 .b.c'.d'.e' .f'.d'.f'.b' | .^a'.f'.a'.c'' !>!b'4 | z2{^g'a'^a'} .[d'b']2 z4 | %82
 z2{^g'a'^a'} .[d'b']2 z4 | z2{^g'a'^a'} .[d'b']2{g'=a'^a'} .[d'=b']2{g'=a'^a'} .[d'b']2 | %84
!<(!{^g'a'^a'} .[d'b']2{g'=a'^a'} .[d'=b']2{g'=a'^a'} .[d'b']2{g'=a'^a'} .[d'b']2!8va)!!<)! | z8 | %86
!<(! z8!<)! |!8va(! z2{^g'a'^a'} .[d'b']2!8va)! z4 |] %88
V:2
 !fermata!z8 | .B,,,,2 .F,,,2 .B,,,,2 .F,,,2 | .B,,,,2 .F,,,2 .B,,,,2 .F,,,2 | %3
 .B,,,,2 .F,,,2 .B,,,,2 .F,,,2 | .B,,,,2 .A,,,2 .B,,,,2 .A,,,2 | .B,,,,2 .F,,,2 .B,,,,2 .F,,,2 | %6
 .B,,,,2 .F,,,2 .B,,,,2 .F,,,2 | .B,,,,2 .F,,,2 .B,,,,2 .F,,,2 | .D,,,2 .A,,,2 .D,,,2 .A,,,2 | %9
 .F,,,2 .C,,2 .A,,,2 .C,,2 | .D,,,2 .^A,,,2 .F,,,2 .C,,2 | .F,,,2 .C,,2 .F,,,2 .C,,2 | %12
 .D,,,2 .^A,,,2 .D,,,2 .C,,2 | .F,,,2 .C,,2 .F,,,2 .C,,2 | .D,,,2 .^A,,,2 .F,,,2 .C,,2 | %15
 .F,,,2 .C,,2 .F,,,2 .C,,2 | .D,,,2 .^A,,,2 .F,,,2 .C,,2 | .B,,,,2 .F,,,2 .B,,,,2 .F,,,2 | %18
 .B,,,,2 .F,,,2 .B,,,,2 .F,,,2 | .B,,,,2 .F,,,2 .B,,,,2 .F,,,2 | .D,,,2 .A,,,2 .D,,,2 .A,,,2 | %21
 .B,,,,2 .F,,,2 .B,,,,2 .F,,,2 | .B,,,,2 .F,,,2 .B,,,,2 .F,,,2 | .B,,,,2 .B,,,2 .A,,,2 .G,,,2 | %24
 .F,,,2 .E,,,2 .D,,,2 .C,,,2 |!ped! .B,,,,2 ([F,,D,]/^E,,/F,,)!ped! .B,,,2 ([F,,D,]/E,,/F,,) | %26
!ped! .B,,,2 ([F,,D,]/.^E,,/F,,)!ped! .B,,,2 ([F,,=C,]/E,,/F,,) | %27
!ped! .B,,,2 ([F,,D,]/^E,,/F,,)!ped! .B,,,2 ([F,,D,]/E,,/F,,) | %28
!ped! .D,,2 ([A,,F,]/^G,,/A,,)!ped! .B,,,2 ([A,,F,]/G,,/A,,) | %29
!ped! .B,,,2 ([F,,D,]/^E,,/F,,)!ped! .B,,,2 ([F,,D,]/E,,/F,,) | %30
!ped! .B,,,2 ([F,,D,]/^E,,/F,,)!ped! .B,,,2 ([F,,=C,]/E,,/F,,) | %31
!ped! .B,,,2 ([F,,D,]/^E,,/F,,)!ped! .B,,,2 ([F,,D,]/E,,/F,,) | %32
!ped! .D,,2 ([A,,F,]/^G,,/A,,)!ped! .B,,,2 ([A,,F,]/G,,/A,,) | %33
!ped! .F,,2 ([C,^A,]/^B,,/C,)!ped! .F,,2 ([C,A,]/B,,/C,) | %34
!ped! !>!.D,,2 ([D,^A,]/C,/D,)!ped! .F,,2 ([C,A,]/^B,,/C,) | %35
!ped! .F,,2 ([C,^A,]/^B,,/C,)!ped! .F,,2 ([C,A,]/B,,/C,) | %36
!ped! !>!.D,,2 ([D,^A,]/C,/D,)!ped! .F,,2 ([C,A,]/^B,,/C,) | %37
!ped! .F,,2 ([C,^A,]/^B,,/C,)!ped! .F,,2 ([C,A,]/B,,/C,) | %38
!ped! .D,,2 ([D,^A,]/C,/D,)!ped! .F,,2 ([C,A,]/^B,,/C,) | %39
!ped! .F,,2 ([C,^A,]/^B,,/C,)!ped! .F,,2 ([C,A,]/B,,/C,) | %40
!ped! .D,,2 ([D,^A,]/C,/D,)!ped! .F,,2 ([C,A,]/^B,,/C,) |!ped! B,,,F,,F,F,,!ped! B,,,F,,F,F,, | %42
!ped! B,,,F,,F,F,,!ped! B,,,F,,F,F,, |!ped! B,,,F,,F,F,,!ped! B,,,F,,F,F,, | %44
!ped! D,,A,,F,A,,!ped! D,,A,,F,A,, |!ped! B,,,F,,F,F,, B,,,F,,F,F,, | %46
!ped! B,,,F,,F,F,,!ped! B,,,F,,F,F,, | B,,,F,, .[B,,B,]2 [=A,,B,,=A,]2 .[G,,B,,G,]2 | %48
 [F,,B,,F,]2 !>![E,,B,,E,]2 !>![D,,B,,D,]2 !>![C,,B,,C,]2 | %49
!ped! !>!.[B,,,B,,].A,,.G,,.F,,!ped! !>!.[B,,,B,,].A,,.G,,.F,, | %50
!ped! !>![B,,,B,,]A,,G,,F,,!ped! !>![B,,,B,,]A,,G,,F,, | %51
!ped! !>![B,,,B,,]A,,G,,F,,!ped! !>![B,,,B,,]A,,G,,F,, | %52
!ped! !>![D,,D,]C,B,,A,,!ped! !>![D,,D,]C,B,,A,, | %53
!ped! !>![B,,,B,,]A,,G,,F,,!ped! !>![B,,,B,,]A,,G,,F,, | %54
!ped! !>![B,,,B,,]A,,G,,F,,!ped! !>![B,,,B,,]A,,G,,F,, | %55
!ped! !>![B,,,B,,]A,,G,,E,,!ped! !>![B,,,B,,]A,,G,,F,, | %56
!ped! !>![D,,D,]C,B,,A,,!ped! !>![D,,D,]C,B,,A,, |!ped! !>![F,,F,]E,D,C,!ped! !>![F,,F,]E,D,C, | %58
!ped! !>![D,,D,]C,D,E,!ped! !>![F,,F,]E,D,C, |!ped! !>![F,,F,]E,D,C,!ped! !>![F,,F,]E,D,C, | %60
!ped! !>![D,,D,]C,D,E,!ped! !>![F,,F,]E,D,C, |!ped! !>![F,,F,]^E,^D,C,!ped! !>![F,,F,]E,D,C, | %62
!ped! !>![^D,,^D,]C,D,^E,!ped! !>![F,,F,]E,D,C, |!ped! !>![F,,F,]^E,^D,C,!ped! !>![F,,F,]E,D,C, | %64
!ped! !>![^D,,^D,]C,D,^E,!ped! !>![F,,F,]E,D,C, | %65
!ped! !>![B,,,B,,]A,,G,,F,,!ped! !>![B,,,B,,]A,,G,,F,, | %66
!ped! !>![B,,,B,,]A,,G,,F,,!ped! !>![B,,,B,,]A,,G,,F,, | %67
!ped! !>![B,,,B,,]A,,G,,E,,!ped! !>![B,,,B,,]A,,G,,F,, | %68
!ped! !>![D,,D,]C,B,,A,,!ped! !>![D,,D,]C,B,,A,, | %69
!ped! !>![B,,,B,,]A,,G,,F,,!ped! !>![B,,,B,,]A,,G,,E,, | %70
!ped! !>![B,,,B,,]A,,G,,F,,!ped! !>![B,,,B,,]A,,G,,F,, | %71
!ped! !>![B,,,B,,]A,,G,,F,,!ped! !>![B,,,B,,]A,,G,,E,, | %72
!ped! !>!B,,A,,G,,F,,!ped! !>![B,,,B,,]A,,G,,F,, |!ped! [B,,,B,,]2!ped-up! .[D,^E,^G,B,]2 z4 | %74
!ped! [B,,,B,,]2!ped-up! .[D,F,B,]2 z4 |!ped! !>![G,,G,]2 [D,G,B,]2!ped! !>![E,,F,]2 [D,F,B,]2 | %76
!ped! !>![F,,,F,,]2 [C,F,^A,]2!ped! !>![B,,,B,,]2 [D,F,B,]2 | %77
!ped! [B,,,B,,]2!ped-up! .[D,^E,^G,B,]2 z4 |!ped! [B,,,B,,]2!ped-up! .[D,F,B,]2 z4 | %79
!ped! !>![G,,G,]2 [D,G,B,]2!ped! !>![F,,F,]2 [D,F,B,]2 | %80
!ped! !>![F,,,F,,]2 [E,F,^A,C]2!ped! !>![B,,,B,,]2 [D,F,B,]2 | %81
!ped! [B,,,B,,]2!ped-up! .[D,^E,^G,B,]2 z4 |!ped! [B,,,B,,]2!ped-up! .[D,^E,^G,B,]2 z4 | %83
 [B,,,B,,]2 .[D,^E,^G,B,]2 .[D,E,G,B,]2 .[D,E,G,B,]2 | %84
 .[D,^E,^G,B,]2 .[D,E,G,B,]2 .[D,E,G,B,]2 .[D,E,G,B,]2 | z4!p!!ped! !//-!B,,,2B,,2 | %86
 !//-!B,,,2B,,2 !//-!B,,,2B,,2 |!ff! .[B,,,,B,,,]2!ped-up! .[B,,D,F,B,]2 z4 |] %88
V:3
 x8 | x8 | x8 | x8 | x8 | x8 | x8 | x8 | x8 | x8 | x8 | x8 | x8 | x8 | x8 | x8 | x8 | x8 | x8 | %19
 x8 | x8 | x8 | x8 | x8 | x8 | x8 | x8 | x8 | x4 z2 [A,D]2 | z2 F2 z2 F2 | z2 F2 z2 F2 | x8 | %32
 z2 A2 z2 [Ad]2 | z2 F2 z2 F2 | z2 [F^A]2 z2 [FA]2 | z2 F2 z2 [F^A]2 | z2 [F^A]2 z2 [FA]2 | x8 | %38
 x8 | x8 | x4 z2 [f^a]2 | x8 | x8 | x8 | x4 z2 [A,D]2 | x8 | x8 | x4 z2 [Bd]2 | z2 [Bd]2 x4 | %49
!8va(! b4 b4 | b4 b4 | b4 b4 | [ad']4 [ad']4 | b4 b4 | b4 b4 | b4 b4 | [ad']4 [ad']4 | %57
 f'4 [c'f']2 [c'f']2 | x8 | x8 | x8 | f'4 [c'f']2 [c'f']2 | x8 | x8 | x8 | b4 b4 | b4 b4 | b4 b4 | %68
 [ad']4 [ad']4 | x8 | x8 | x8 | x8 | x8 | x8 | x8 | x8 | x8 | x8 | x8 | x8 | x8 | x8 | x8 | %84
 x8!8va)! | x8 | x8 |!8va(! x4!8va)! x4 |] %88

